assets/img/braze_icons/users-02.svg

<svg fill="none" height="24" viewBox="0 0 24 24" width="24" xmlns="http://www.w3.org/2000/svg"><g clip-rule="evenodd" fill="#801ed7" fill-rule="evenodd"><path d="m15.1045 3.02273c.2458-.49458.846-.69627 1.3405-.45048 1.8086.89878 3.055 2.76679 3.055 4.92775s-1.2464 4.029-3.055 4.9278c-.4945.2457-1.0947.0441-1.3405-.4505s-.0441-1.0948.4505-1.3406c1.1548-.5739 1.945-1.76394 1.945-3.1367s-.7902-2.5628-1.945-3.13673c-.4946-.24578-.6963-.84596-.4505-1.34054z"/><path d="m17.0889 16.3541c.2277-.5031.8202-.7265 1.3234-.4988 1.6779.7593 3.1618 1.984 4.374 3.5269.3412.4343.2658 1.0629-.1685 1.4041s-1.0629.2658-1.4041-.1685c-1.0427-1.3271-2.281-2.3317-3.626-2.9403-.5031-.2277-.7264-.8202-.4988-1.3234z"/><path d="m4.00001 7.5c0-3.03757 2.46243-5.5 5.5-5.5 3.03759 0 5.49999 2.46243 5.49999 5.5 0 3.0376-2.4624 5.5-5.49999 5.5-3.03757 0-5.5-2.4624-5.5-5.5z"/><path d="m1.21368 19.3822c2.09179-2.6624 5.00346-4.3822 8.28633-4.3822 3.28289 0 6.19459 1.7198 8.28629 4.3822.2365.301.2804.7106.1131 1.0549s-.5166.5629-.8994.5629h-14.99999c-.38282 0-.73205-.2186-.89939-.5629-.167351-.3443-.123449-.7539.11306-1.0549z"/></g></svg>

<svg width="24" height="24" viewBox="0 0 24 24" fill="none" xmlns="http://www.w3.org/2000/svg">
<path fill-rule="evenodd" clip-rule="evenodd" d="M15.1045 3.02273C15.3503 2.52815 15.9505 2.32646 16.445 2.57225C18.2536 3.47103 19.5 5.33904 19.5 7.5C19.5 9.66096 18.2536 11.529 16.445 12.4278C15.9505 12.6735 15.3503 12.4719 15.1045 11.9773C14.8587 11.4827 15.0604 10.8825 15.555 10.6367C16.7098 10.0628 17.5 8.87276 17.5 7.5C17.5 6.12724 16.7098 4.9372 15.555 4.36327C15.0604 4.11749 14.8587 3.51731 15.1045 3.02273Z" fill="#801ED7"/>
<path fill-rule="evenodd" clip-rule="evenodd" d="M17.0889 16.3541C17.3166 15.851 17.9091 15.6276 18.4123 15.8553C20.0902 16.6146 21.5741 17.8393 22.7863 19.3822C23.1275 19.8165 23.0521 20.4451 22.6178 20.7863C22.1835 21.1275 21.5549 21.0521 21.2137 20.6178C20.171 19.2907 18.9327 18.2861 17.5877 17.6775C17.0846 17.4498 16.8613 16.8573 17.0889 16.3541Z" fill="#801ED7"/>
<path fill-rule="evenodd" clip-rule="evenodd" d="M4.00001 7.5C4.00001 4.46243 6.46244 2 9.50001 2C12.5376 2 15 4.46243 15 7.5C15 10.5376 12.5376 13 9.50001 13C6.46244 13 4.00001 10.5376 4.00001 7.5Z" fill="#801ED7"/>
<path fill-rule="evenodd" clip-rule="evenodd" d="M1.21368 19.3822C3.30547 16.7198 6.21714 15 9.50001 15C12.7829 15 15.6946 16.7198 17.7863 19.3822C18.0228 19.6832 18.0667 20.0928 17.8994 20.4371C17.7321 20.7814 17.3828 21 17 21H2.00001C1.61719 21 1.26796 20.7814 1.10062 20.4371C0.933269 20.0928 0.977171 19.6832 1.21368 19.3822Z" fill="#801ED7"/>
</svg>
